public/static/img/crypto/INR.svg

<svg width="32" height="32" viewBox="0 0 32 32" fill="none" xmlns="http://www.w3.org/2000/svg">
<g clip-path="url(#clip0_696_7323)">
<path d="M31.9714 15.9946C31.9714 24.7875 24.8438 31.915 16.051 31.915C7.25843 31.915 0.130554 24.7875 0.130554 15.9946C0.130554 7.20194 7.25843 0.0742188 16.051 0.0742188C24.8438 0.0742188 31.9714 7.20194 31.9714 15.9946Z" fill="#1BA27A"/>
<path d="M23.5228 8.10205H8.44781V11.7415H14.1656V17.0907H17.805V11.7415H23.5228V8.10205Z" fill="white"/>
<path d="M16.0199 17.6603C11.2899 17.6603 7.45519 16.9117 7.45519 15.9882C7.45519 15.0648 11.2898 14.3161 16.0199 14.3161C20.7498 14.3161 24.5844 15.0648 24.5844 15.9882C24.5844 16.9117 20.7498 17.6603 16.0199 17.6603ZM25.6366 16.2669C25.6366 15.0761 21.3311 14.1108 16.0199 14.1108C10.7088 14.1108 6.40302 15.0761 6.40302 16.2669C6.40302 17.3156 9.74168 18.1893 14.1658 18.3829V26.062H17.8049V18.3859C22.2631 18.1984 25.6366 17.321 25.6366 16.2669Z" fill="white"/>
<g clip-path="url(#clip1_696_7323)">
<g clip-path="url(#clip2_696_7323)">
<path d="M15.9344 0C9.20002 0 3.49709 4.1472 1.03735 10.1035H30.703C28.503 4.1472 22.672 0 15.9344 0Z" fill="#FF9933"/>
<path d="M0.909363 21.1191C2.98136 27.4658 9.07203 32.0007 16.0656 32.0007C23.0592 32.0007 29.0187 27.4663 31.2219 21.1191H0.909363Z" fill="#138808"/>
<path d="M32 16.0654C32 13.9939 31.6123 11.9187 30.8347 10.1064H1.1648C0.388267 11.9219 0 13.9939 0 16.0659C0 17.8814 0.2592 19.5624 0.906667 21.1187H31.0907C31.7408 19.5624 32 17.7502 32 16.0659V16.0654Z" fill="white"/>
<path d="M20.6315 14.0469L20.1408 13.8938L20.4219 13.625L20.9125 13.7781L20.6315 14.0469ZM21.1157 15.2159L20.7157 14.9973L21.1157 14.7786L21.5189 14.9973L21.1157 15.2159ZM21.0347 16.4159L20.7467 16.1439L21.2373 15.9909L21.5216 16.2597L21.0347 16.4159ZM20.3749 17.5626L20.2283 17.2597L20.7781 17.1813L20.928 17.4815C20.928 17.4783 20.3749 17.5626 20.3749 17.5626Z" fill="#000066"/>
<path d="M20.4064 14.0467L20.1376 13.8937L20.2906 13.6249L20.5595 13.7779L20.4064 14.0467ZM20.672 15.2158L20.4533 14.9939L20.672 14.7753L20.8906 14.9939L20.672 15.2158ZM20.625 16.4158L20.4688 16.1438L20.7376 15.9907L20.8939 16.2595C20.8907 16.2595 20.625 16.4158 20.625 16.4158ZM20.2688 17.5625L20.1904 17.2595L20.4907 17.1811L20.5717 17.4814L20.2688 17.5625ZM15.6714 11.0531L15.4528 11.275L15.2314 11.0531L15.4533 10.8345L15.672 11.0531H15.6714ZM16.8752 11.1033L16.6064 11.2563L16.4533 10.9875L16.7216 10.8345L16.8752 11.1033ZM18.0187 11.4563L17.7189 11.5374L17.6405 11.2377L17.9408 11.1566L18.0187 11.4563ZM18.7248 11.7875H19.0341V12.0969H18.7248V11.7875ZM19.8469 12.9811L19.5466 12.9001L19.6283 12.5998L19.928 12.6814L19.8469 12.9811ZM19.6314 18.5779V18.2686H19.9408V18.5779H19.6314ZM18.7466 19.3907L18.8251 19.0905L19.1248 19.1721L19.0469 19.4718L18.7466 19.3907ZM17.6842 19.9502L17.8405 19.6814L18.1093 19.8345L17.9562 20.1033C17.953 20.1033 17.6842 19.9502 17.6842 19.9502ZM16.5093 20.2158L16.7312 19.9971L16.9499 20.2158L16.7312 20.4345L16.5093 20.2158ZM15.3125 20.1689L15.5845 20.0126L15.7376 20.2814L15.4688 20.4345C15.4688 20.4313 15.3125 20.1689 15.3125 20.1689ZM14.1626 19.8126L14.4624 19.7315L14.5408 20.0313L14.2405 20.1123L14.1626 19.8126ZM13.1466 19.1721H13.456V19.4814H13.1466V19.1721ZM12.3344 18.2873L12.6346 18.3689L12.553 18.6686L12.2533 18.5875L12.3344 18.2873ZM11.7749 17.2249L12.0437 17.3785L11.8874 17.6467L11.6186 17.4937L11.7749 17.2249ZM11.5125 16.0531L11.7344 16.2718L11.5125 16.4905L11.2938 16.2718L11.5125 16.0531ZM11.5562 14.8563L11.7125 15.1283L11.4437 15.2814L11.2906 15.0126L11.5562 14.8563ZM11.6154 13.7907L11.9157 13.7097L11.9968 14.0094L11.697 14.0905L11.6154 13.7907ZM12.5562 12.6905V12.9998H12.2469V12.6905H12.5562ZM13.4373 11.8782L13.3594 12.1785L13.0592 12.0969L13.1376 11.7971L13.4373 11.8782ZM14.5029 11.3187L14.3498 11.5907L14.081 11.4377L14.2341 11.1689L14.5029 11.3187ZM15.9968 15.6222L16.128 13.7907L15.984 11.0345L15.856 13.7939L15.9968 15.6217V15.6222ZM15.9968 15.6222L16.5968 13.8846L17.1717 11.1843L16.3344 13.8158C16.3312 13.819 15.9968 15.6217 15.9968 15.6217V15.6222Z" fill="#000066"/>
<path d="M15.9968 15.6216L17.0251 14.1032L18.2811 11.644L16.7878 13.9688L15.9968 15.6222V15.6216ZM15.9968 15.6216L17.3846 14.4216L19.2315 12.3683L17.1904 14.2312L15.9968 15.6216ZM15.9968 15.6216L17.647 14.819L19.9595 13.3187L17.5062 14.5875C17.5094 14.5875 15.9968 15.6222 15.9968 15.6222V15.6216ZM15.9968 15.6216L17.7968 15.2718L20.4251 14.4184L17.728 15.0062L15.9968 15.6216Z" fill="#000066"/>
<path d="M15.9968 15.6217L17.8283 15.7534L20.5846 15.6094L17.8283 15.4814L15.9968 15.6222V15.6217ZM15.9968 15.6217L17.7344 16.2217L20.4374 16.7972L17.8064 15.9598L15.9968 15.6217ZM15.9968 15.6217L17.519 16.6532L19.9782 17.9097L17.6528 16.4217L15.9968 15.6217ZM15.9968 15.6217L17.1968 17.0094L19.2502 18.8596L17.3878 16.8158C17.3904 16.8158 15.9968 15.6217 15.9968 15.6217ZM15.9968 15.6217L16.8 17.2718L18.303 19.5844L17.0347 17.131C17.0347 17.1342 15.9968 15.6217 15.9968 15.6217ZM15.9968 15.6217L16.3435 17.4249L17.1968 20.05L16.6096 17.3534L15.9968 15.6222V15.6217Z" fill="#000066"/>
<path d="M16.056 15.6219L15.9216 17.4533L16.0752 20.2128L16.2096 17.4533L16.056 15.6219ZM16.056 15.6219L15.4251 17.3568L14.8187 20.0597L15.6997 17.4283L16.056 15.6224V15.6219ZM15.9973 15.6219L14.9653 17.1413L13.7152 19.6005L15.2027 17.2757L15.9963 15.6224L15.9973 15.6219ZM15.9973 15.6219L14.6096 16.8219L12.7589 18.8752L14.8032 17.0192L15.9968 15.6219H15.9973ZM15.9973 15.6219L14.3467 16.4251L12.0283 17.9285L14.4816 16.6592L15.9968 15.6219H15.9973ZM15.9973 15.6219L14.1968 15.9723L11.5685 16.8256L14.2656 16.2379C14.842 16.0306 15.4191 15.8253 15.9968 15.6219H15.9973ZM15.9973 15.6219L14.1685 15.4907L11.4096 15.6379L14.1685 15.7659L15.9968 15.6219H15.9973ZM15.9973 15.6219L14.2624 15.0219L11.5627 14.4501L14.1936 15.2848L15.9968 15.6224L15.9973 15.6219ZM15.9973 15.6219L14.4779 14.5909L12.0192 13.3408L14.3435 14.8288C14.3408 14.8288 15.9968 15.6224 15.9968 15.6224L15.9973 15.6219ZM15.9973 15.6219L14.7973 14.2347L12.744 12.3877L14.6064 14.4283C14.6032 14.4283 15.9968 15.6219 15.9968 15.6219H15.9973ZM15.9973 15.6219L15.1936 13.9723L13.6907 11.6597L14.9595 14.1131L15.9968 15.6224L15.9973 15.6219ZM15.9973 15.6219L15.6501 13.8192L14.7936 11.1909L15.3845 13.8907L15.9968 15.6219H15.9973Z" fill="#000066"/>
<path d="M17.4405 10.6065C16.4452 10.339 15.3928 10.3732 14.417 10.7048C13.4411 11.0364 12.5858 11.6504 11.9594 12.4689C11.3333 13.2867 10.9631 14.2715 10.8958 15.2993C10.8284 16.3271 11.0667 17.3518 11.5808 18.2443C12.0962 19.1362 12.8644 19.8553 13.7883 20.3108C14.7122 20.7662 15.7504 20.9376 16.7717 20.8033C17.7936 20.6697 18.7528 20.2353 19.5273 19.5554C20.3018 18.8754 20.8567 17.9806 21.1216 16.9846C21.2988 16.3238 21.344 15.6345 21.2545 14.9561C21.165 14.2778 20.9426 13.6238 20.6 13.0315C20.2592 12.439 19.8047 11.9197 19.2624 11.5035C18.7202 11.0873 18.101 10.7824 17.4405 10.6065ZM14.8938 20.0945C14.0118 19.858 13.2196 19.3654 12.6174 18.6788C12.0152 17.9923 11.6301 17.1426 11.5107 16.2372C11.3913 15.3319 11.543 14.4114 11.9465 13.5922C12.3501 12.773 12.9875 12.0918 13.7781 11.6348C14.5684 11.1776 15.4766 10.9652 16.3877 11.0245C17.2988 11.0838 18.1719 11.4121 18.8963 11.9679C19.6207 12.5236 20.1639 13.2818 20.4571 14.1465C20.7503 15.0112 20.7804 15.9434 20.5434 16.8252C19.8906 19.2908 17.3594 20.7537 14.8938 20.0945Z" fill="#000066"/>
<path d="M16.9877 15.875C17.0635 16.007 17.1055 16.1556 17.1102 16.3077C17.115 16.4598 17.0821 16.6107 17.0147 16.7471C16.9473 16.8836 16.8473 17.0013 16.7236 17.0899C16.5999 17.1785 16.4563 17.2353 16.3054 17.2553C16.1545 17.2753 16.0011 17.2578 15.8586 17.2044C15.7161 17.151 15.5889 17.0634 15.4883 16.9492C15.3877 16.835 15.3167 16.6978 15.2817 16.5497C15.2467 16.4017 15.2487 16.2472 15.2874 16.1001C15.196 15.9405 15.1538 15.7575 15.166 15.5739C15.1782 15.3904 15.2444 15.2146 15.3562 15.0686C15.468 14.9225 15.6207 14.8131 15.7949 14.7542C15.9691 14.6953 16.1569 14.6896 16.3344 14.7379C16.5715 14.8025 16.7735 14.9584 16.8959 15.1715C17.0184 15.3846 17.0514 15.6376 16.9877 15.875ZM18.0187 11.4563L17.7189 11.5374L17.6405 11.2377L17.9408 11.1566L18.0187 11.4563ZM18.7248 11.7875H19.0341V12.0969H18.7248V11.7875ZM19.8469 12.9811L19.5466 12.9001L19.6283 12.5998L19.928 12.6814L19.8469 12.9811ZM19.6314 18.5779V18.2686H19.9408V18.5779H19.6314ZM18.7466 19.3907L18.8251 19.0905L19.1248 19.1721L19.0469 19.4718L18.7466 19.3907ZM17.6842 19.9502L17.8405 19.6814L18.1093 19.8345L17.9562 20.1033C17.953 20.1033 17.6842 19.9502 17.6842 19.9502ZM16.5093 20.2158L16.7312 19.9971L16.9499 20.2158L16.7312 20.4345L16.5093 20.2158ZM15.3125 20.1689L15.5845 20.0126L15.7376 20.2814L15.4688 20.4345C15.4688 20.4313 15.3125 20.1689 15.3125 20.1689ZM14.1626 19.8126L14.4624 19.7315L14.5408 20.0313L14.2405 20.1123L14.1626 19.8126ZM13.1466 19.1721H13.456V19.4814H13.1466V19.1721ZM12.3344 18.2873L12.6346 18.3689L12.553 18.6686L12.2533 18.5875L12.3344 18.2873ZM11.7749 17.2249L12.0437 17.3785L11.8874 17.6467L11.6186 17.4937L11.7749 17.2249ZM11.5125 16.0531L11.7344 16.2718L11.5125 16.4905L11.2938 16.2718L11.5125 16.0531ZM11.5562 14.8563L11.7125 15.1283L11.4437 15.2814L11.2906 15.0126L11.5562 14.8563ZM11.6154 13.7907L11.9157 13.7097L11.9968 14.0094L11.697 14.0905L11.6154 13.7907ZM12.5562 12.6905V12.9998H12.2469V12.6905H12.5562ZM13.4373 11.8782L13.3594 12.1785L13.0592 12.0969L13.1376 11.7971L13.4373 11.8782ZM14.5029 11.3187L14.3498 11.5907L14.081 11.4377L14.2341 11.1689L14.5029 11.3187ZM15.672 11.0531L15.4533 11.275L15.2314 11.0531L15.4533 10.8345L15.672 11.0531Z" fill="#000066"/>
</g>
</g>
</g>
<defs>
<clipPath id="clip0_696_7323">
<rect width="32" height="32" fill="white"/>
</clipPath>
<clipPath id="clip1_696_7323">
<rect width="32" height="32" fill="white"/>
</clipPath>
<clipPath id="clip2_696_7323">
<rect width="32" height="32" fill="white"/>
</clipPath>
</defs>
</svg>

<svg width="32" height="32" fill="none" xmlns="http://www.w3.org/2000/svg"><g clip-path="url(#a)"><path d="M31.971 15.995c0 8.793-7.127 15.92-15.92 15.92S.131 24.788.131 15.995 7.258.075 16.05.075s15.92 7.127 15.92 15.92Z" fill="#1BA27A"/><path d="M23.523 8.102H8.448v3.64h5.718v5.349h3.639v-5.35h5.718V8.103Z" fill="#fff"/><path d="M16.02 17.66c-4.73 0-8.565-.748-8.565-1.672 0-.923 3.835-1.672 8.565-1.672 4.73 0 8.564.749 8.564 1.672 0 .924-3.834 1.672-8.564 1.672Zm9.617-1.393c0-1.19-4.306-2.156-9.617-2.156-5.311 0-9.617.965-9.617 2.156 0 1.049 3.339 1.922 7.763 2.116v7.679h3.639v-7.676c4.458-.188 7.832-1.065 7.832-2.12Z" fill="#fff"/><g clip-path="url(#b)"><g clip-path="url(#c)"><path d="M15.934 0C9.2 0 3.497 4.147 1.037 10.104h29.666C28.503 4.147 22.672 0 15.934 0Z" fill="#F93"/><path d="M.91 21.12C2.98 27.465 9.071 32 16.065 32c6.993 0 12.953-4.534 15.156-10.88H.909Z" fill="#138808"/><path d="M32 16.065c0-2.071-.388-4.146-1.165-5.959H1.165C.388 11.922 0 13.994 0 16.066c0 1.815.26 3.496.907 5.053H31.09c.65-1.557.909-3.369.909-5.053Z" fill="#fff"/><path d="m20.631 14.047-.49-.153.28-.269.492.153-.282.269Zm.485 1.169-.4-.219.4-.218.403.218-.403.219Zm-.081 1.2-.288-.272.49-.153.285.269-.487.156Zm-.66 1.147-.147-.303.55-.079.15.3c0-.003-.553.082-.553.082Z" fill="#006"/><path d="m20.406 14.047-.268-.153.153-.27.268.154-.153.269Zm.266 1.169-.219-.222.219-.219.219.219-.219.222Zm-.047 1.2-.156-.272.269-.153.156.268c-.003 0-.269.157-.269.157Zm-.356 1.146-.079-.303.3-.078.082.3-.303.081Zm-4.598-6.509-.218.222-.222-.222.222-.219.219.22Zm1.204.05-.269.153-.153-.268.269-.153.153.268Zm1.144.353-.3.081-.079-.3.3-.08.079.3Zm.706.332h.31v.309h-.31v-.31Zm1.122 1.193-.3-.08.081-.301.3.081-.081.3Zm-.216 5.597v-.31h.31v.31h-.31Zm-.884.813.078-.3.3.081-.078.3-.3-.081Zm-1.063.56.156-.27.27.153-.154.27c-.003 0-.272-.154-.272-.154Zm-1.175.265.222-.219.219.219-.219.218-.222-.218Zm-1.197-.047.273-.156.153.268-.27.154c0-.004-.155-.266-.155-.266Zm-1.15-.356.3-.081.079.3-.3.08-.078-.3Zm-1.015-.64h.309v.308h-.31v-.309Zm-.813-.886.3.082-.081.3-.3-.082.081-.3Zm-.56-1.062.27.153-.157.269-.268-.153.156-.27Zm-.261-1.172.221.219-.222.219-.218-.22.218-.218Zm.043-1.197.157.272-.27.153-.152-.268.265-.157Zm.06-1.065.3-.081.08.3-.299.08-.082-.3Zm.94-1.1V13h-.31v-.31h.31Zm.881-.813-.078.3-.3-.081.079-.3.3.081Zm1.066-.56-.153.273-.269-.153.153-.27.269.15Zm1.494 4.304.131-1.831-.144-2.757-.128 2.76.14 1.828Zm0 0 .6-1.737.575-2.7-.838 2.63c-.003.004-.337 1.807-.337 1.807Z" fill="#006"/><path d="m15.997 15.622 1.028-1.519 1.256-2.459-1.493 2.325-.791 1.653Zm0 0 1.388-1.2 1.846-2.054-2.04 1.863-1.194 1.39Zm0 0 1.65-.803 2.313-1.5-2.454 1.268c.003 0-1.51 1.035-1.51 1.035Zm0 0 1.8-.35 2.628-.854-2.697.588-1.731.616Z" fill="#006"/><path d="m15.997 15.622 1.831.131 2.757-.144-2.757-.128-1.831.141Zm0 0 1.737.6 2.703.575-2.63-.837-1.81-.338Zm0 0 1.522 1.031 2.46 1.257-2.326-1.488-1.656-.8Zm0 0 1.2 1.387 2.053 1.85-1.862-2.043c.002 0-1.391-1.194-1.391-1.194Zm0 0 .803 1.65 1.503 2.312-1.268-2.453c0 .003-1.038-1.51-1.038-1.51Zm0 0 .346 1.803.854 2.625-.587-2.697-.613-1.73v-.001Z" fill="#006"/><path d="m16.056 15.622-.134 1.831.153 2.76.135-2.76-.154-1.831Zm0 0-.63 1.735-.607 2.703.88-2.632.357-1.806Zm-.059 0-1.032 1.52-1.25 2.459 1.488-2.325.793-1.654h.001Zm0 0-1.387 1.2-1.851 2.053 2.044-1.856 1.194-1.397Zm0 0-1.65.803-2.319 1.503 2.454-1.269 1.515-1.037Zm0 0-1.8.35-2.628.854 2.697-.588a273.93 273.93 0 0 1 1.73-.616h.001Zm0 0-1.829-.131-2.758.147 2.758.128 1.829-.144Zm0 0-1.735-.6-2.7-.572 2.632.835 1.803.337Zm0 0-1.52-1.031-2.458-1.25 2.325 1.488c-.003 0 1.653.793 1.653.793Zm0 0-1.2-1.387-2.053-1.847 1.862 2.04c-.003 0 1.39 1.194 1.39 1.194h.001Zm0 0-.803-1.65-1.503-2.312 1.268 2.453 1.038 1.51v-.001Zm0 0-.347-1.803-.856-2.628.59 2.7.613 1.73Z" fill="#006"/><path d="M17.44 10.607a5.201 5.201 0 0 0-5.48 1.862 5.217 5.217 0 0 0-.38 5.775 5.21 5.21 0 0 0 7.947 1.311 5.2 5.2 0 0 0 1.595-2.57 5.204 5.204 0 0 0-.522-3.954 5.185 5.185 0 0 0-3.16-2.425Zm-2.546 9.488a4.62 4.62 0 0 1 1.494-9.07 4.613 4.613 0 0 1 4.155 5.8 4.609 4.609 0 0 1-5.65 3.27Z" fill="#006"/><path d="M16.988 15.875a.926.926 0 1 1-1.7.225.934.934 0 0 1 .507-1.346.926.926 0 0 1 1.1.418.929.929 0 0 1 .093.703Zm1.03-4.419-.3.081-.078-.3.3-.08.079.3Zm.707.332h.31v.309h-.31v-.31Zm1.122 1.193-.3-.08.081-.301.3.081-.081.3Zm-.216 5.597v-.31h.31v.31h-.31Zm-.884.813.078-.3.3.081-.078.3-.3-.081Zm-1.063.56.156-.27.27.153-.154.27c-.003 0-.272-.154-.272-.154Zm-1.175.265.222-.219.219.219-.219.218-.222-.218Zm-1.197-.047.273-.156.153.268-.27.154c0-.004-.155-.266-.155-.266Zm-1.15-.356.3-.081.079.3-.3.08-.078-.3Zm-1.015-.64h.309v.308h-.31v-.309Zm-.813-.886.3.082-.081.3-.3-.082.081-.3Zm-.56-1.062.27.153-.157.269-.268-.153.156-.27Zm-.261-1.172.221.219-.222.219-.218-.22.218-.218Zm.043-1.197.157.272-.27.153-.152-.268.265-.157Zm.06-1.065.3-.081.08.3-.299.08-.082-.3Zm.94-1.1V13h-.31v-.31h.31Zm.881-.813-.078.3-.3-.081.079-.3.3.081Zm1.066-.56-.153.273-.269-.153.153-.27.269.15Zm1.169-.265-.219.222-.222-.222.222-.219.219.22Z" fill="#006"/></g></g></g><defs><clipPath id="a"><path fill="#fff" d="M0 0h32v32H0z"/></clipPath><clipPath id="b"><path fill="#fff" d="M0 0h32v32H0z"/></clipPath><clipPath id="c"><path fill="#fff" d="M0 0h32v32H0z"/></clipPath></defs></svg>
